X: 38277
T: St. Helen's Bay
R: jig
M: 6/8
K: Gmajor
M: 12/8
|:A|B3 BAB d2 B B3|d2 B B3 cBA BAG|
B3 BAB d2 B B3|1 d2 B cBA G3 G2:|2 d2 B cBA G3 G|
|:Bd|g3 gfg a2 g d3|g2 d d2 B cBA BAG|
g3 gfg a2 g d3|1 g2 d cBA G3 G:|2 g2 d cBA G3 G3|

